cms/static/cms/icons/chevrons-left.svg

<?xml version="1.0" encoding="UTF-8"?>
<svg width="24px" height="24px" viewBox="0 0 24 24" version="1.1" xmlns="http://www.w3.org/2000/svg" xmlns:xlink="http://www.w3.org/1999/xlink">
    <!-- Generator: Sketch 48.2 (47327) - http://www.bohemiancoding.com/sketch -->
    <title>Resources/icons/chevrons-left</title>
    <desc>Created with Sketch.</desc>
    <defs>
        <path d="M7.41421356,12 L11.7071068,16.2928932 C12.0976311,16.6834175 12.0976311,17.3165825 11.7071068,17.7071068 C11.3165825,18.0976311 10.6834175,18.0976311 10.2928932,17.7071068 L5.29289322,12.7071068 C4.90236893,12.3165825 4.90236893,11.6834175 5.29289322,11.2928932 L10.2928932,6.29289322 C10.6834175,5.90236893 11.3165825,5.90236893 11.7071068,6.29289322 C12.0976311,6.68341751 12.0976311,7.31658249 11.7071068,7.70710678 L7.41421356,12 Z M18.7071068,7.70710678 L14.4142136,12 L18.7071068,16.2928932 C19.0976311,16.6834175 19.0976311,17.3165825 18.7071068,17.7071068 C18.3165825,18.0976311 17.6834175,18.0976311 17.2928932,17.7071068 L12.2928932,12.7071068 C11.9023689,12.3165825 11.9023689,11.6834175 12.2928932,11.2928932 L17.2928932,6.29289322 C17.6834175,5.90236893 18.3165825,5.90236893 18.7071068,6.29289322 C19.0976311,6.68341751 19.0976311,7.31658249 18.7071068,7.70710678 Z" id="path-1"></path>
    </defs>
    <g id="Symbols" stroke="none" stroke-width="1" fill="none" fill-rule="evenodd">
        <g id="Resources/icons/chevrons-left">
            <mask id="mask-2" fill="white">
                <use xlink:href="#path-1"></use>
            </mask>
            <use id="Combined-Shape" fill="#000000" fill-rule="nonzero" xlink:href="#path-1"></use>
            <g id="Resources/Colour/black" mask="url(#mask-2)" fill="#000000">
                <rect id="Rectangle" x="0" y="0" width="24" height="24"></rect>
            </g>
        </g>
    </g>
</svg>

<?xml version="1.0" encoding="utf-8"?>
<!-- Generator: Adobe Illustrator 19.1.0, SVG Export Plug-In . SVG Version: 6.00 Build 0)  -->
<svg version="1.1" id="Layer_1" xmlns="http://www.w3.org/2000/svg" xmlns:xlink="http://www.w3.org/1999/xlink" x="0px" y="0px"
	 viewBox="0 0 24 24" enable-background="new 0 0 24 24" xml:space="preserve">
<g id="Symbols">
	<g id="Resources_x2F_icons_x2F_chevrons-left">
		<g id="Combined-Shape">
			<path id="path-1_1_" d="M7.4,12l4.3,4.3c0.4,0.4,0.4,1,0,1.4c-0.4,0.4-1,0.4-1.4,0l-5-5c-0.4-0.4-0.4-1,0-1.4l5-5
				c0.4-0.4,1-0.4,1.4,0c0.4,0.4,0.4,1,0,1.4L7.4,12z M18.7,7.7L14.4,12l4.3,4.3c0.4,0.4,0.4,1,0,1.4c-0.4,0.4-1,0.4-1.4,0l-5-5
				c-0.4-0.4-0.4-1,0-1.4l5-5c0.4-0.4,1-0.4,1.4,0C19.1,6.7,19.1,7.3,18.7,7.7z"/>
		</g>
	</g>
</g>
</svg>
